X:1
T: Sir John Whiteford
C:Nathaniel Gow
R:Strathspey
Q: 128
K:Eb
M:4/4
L:1/16
|:B,2|E3F E2B,2 C3D E2e2|BG3 F3E C4 C3D|E3F E2B,2 C3D E2e2|B3G F3G E4 E2B,2|
E3F E2B,2 C3D E2e2|BG3 F3E C4 C3D|E3F E2B,2 C3D E2e2|B3G F3G E4 E2a2|
g3e f3d e3c B3G|F3A G2E2 C4-C3a|g3e d2f2 e3c B3G|F3E F2G2 E4 E3g|
e2g2 e2B2 c2e2 B3G|F3A G2B,2 C4 C3D|E3F E2B,2 C2D2 E3e|BG3 F3G E4 E2:|
